!!!COM: Beethoven
!!!OTL: Acht Variationen uber "Une fievre brulante" aus "Richard Coeur de Lion" von A.E.M. Gretry
!!!Variation: Variation 3 b
**function	**harm	**kern	**kern
*M3/4	*M3/4	*staff2	*staff1
*C:	*C:	*clefF4	*clefG2
*tb16	*	*k[]	*k[]
*	*	*M3/4	*M3/4
*	*	*C:	*C:
=	=	=109	=109
2.D	2.V	16r	4dd' 4bb' 4ddd'
.	.	(16GGLL	.
.	.	16AA	.
.	.	16BBJJ	.
.	.	16CLL	4r
.	.	16D	.
.	.	16E	.
.	.	16F#JJ)	.
.	.	8G'L	4dd' 4bb' 4ddd'
.	.	8G'J	.
=	=	=110	=110
2. D	2.vi ii/V	16r	4cc' 4ee' 4ccc'
.	.	(16AALL	.
.	.	16BB	.
.	.	16CJJ	.
.	.	16DLL	4r
.	.	16E	.
.	.	16F#	.
.	.	16GJJ)	.
.	.	8A'L	4cc' 4ee' 4ccc'
.	.	8A'J	.
=	=	=111	=111
2.D	2.V7/V	16r	4cc' 4ff#' 4aa'
.	.	(16DLL	.
.	.	16E	.
.	.	16F#JJ	.
.	.	16GLL	4r
.	.	16A	.
.	.	16B	.
.	.	16c#JJ)	.
.	.	8d'L	4r
.	.	8d'J	.
=	=	=112	=112
2D	2V/V	4d	16r
.	.	.	(16eLL
.	.	.	16f#
.	.	.	16gJJ
.	.	4r	16aLL
.	.	.	16b
.	.	.	16cc
.	.	.	16ddJJ
*	*	*clefG2	*
4D	4V2/V	4c	16eeLL
.	.	.	16ff#
.	.	.	16gg
.	.	.	16aaJJ)
=	=	=113	=113
2.D	2.I6/V	4B 4g	(16bbLL
.	.	.	16aa
.	.	.	16bb
.	.	.	16cccJJ)
.	.	4r	8ddd'L
.	.	.	8bb'J
.	.	4r	8gg'L
.	.	.	8dd'J
=	=	=114	=114
2P	2IV/V	4c 4g	(16eeLL
.	.	.	16dd#
.	.	.	16ee
.	.	.	16ff#JJ)
.	.	4r	8gg'L
.	.	.	8ee'J
4P	4ii/V	4r	8cc'L
.	.	.	8a'J
=	=	=115	=115
*	*	*^	*
2D	2I64/V	4r	2.D	(16bLL
.	.	.	.	16a
.	.	.	.	16b
.	.	.	.	16ccJJ)
.	.	(4B	.	8dd'L
.	.	.	.	8d'J
4D	4V7/V	4c)	.	8e'L
.	.	.	.	8f#'J
=	=	=116	=116	=116
2T	2I/V	4B	4G	4g
.	.	4r	4G'	4r
*	*	*v	*v	*
*-	*-	*-	*-
